public/imgs/faucet/warning.svg

<svg fill="none" height="22" viewBox="0 0 26 22" width="26" xmlns="http://www.w3.org/2000/svg"><path clip-rule="evenodd" d="m11.8385 1.96568 1.1615-1.96568 1.1615 1.96568 10.6567 18.03432 1.1818 2h-2.3231-21.35382-2.32308l1.18182-2zm-8.3336 18.03432 9.4951-16.06864 9.4951 16.06864zm10.6618-3.5002h-2.3333v2.3334h2.3333zm0-9.3333h-2.3333v7h2.3333z" fill="#c14800" fill-rule="evenodd"/></svg>

<svg width="26" height="22" viewBox="0 0 26 22" fill="none" xmlns="http://www.w3.org/2000/svg">
<path fill-rule="evenodd" clip-rule="evenodd" d="M11.8385 1.96568L13 0L14.1615 1.96568L24.8182 20L26 22H23.6769H2.32308H0L1.18182 20L11.8385 1.96568ZM3.5049 20L13 3.93136L22.4951 20H3.5049ZM14.1667 16.4998H11.8334V18.8332H14.1667V16.4998ZM14.1667 7.1665H11.8334V14.1665H14.1667V7.1665Z" fill="#C14800"/>
</svg>
